X:19
T:Drops of Brandy     
O:No 19 Page 7 William Clarke of Feltwell  MS 1858
N:Time sig given as 6/8 when it is actually 9/8.
I:abc2nwc
M:6/8
L:1/8
K:G
d2c BGB BGB|d2c BGB c2A|d2c BGB BGB|cBc A2B cBA:|
|:G2g gdB gdB|G2g gdB cBA|G2g gdB gdB|cBc A2B cBA:|

